X: 4
T: Staten Island
R: hornpipe
M: 4/4
L: 1/8
K: Dmaj
AG|:"D"FDFG A2AB|defd edBA|"G"B2GB "D"A2FA|"A"G2E2 EGFE|
"D"DEFG A2AB|defd edBc|"G"d2d2 "A"efge|[1"D"f2d2 d2AG:|[2"D"f2d2 d2fg||
|:"D"a2fa g2eg|f2df edAB|"C"=c2c2 efge|=cdef g2fg|
"D"a2fa g2eg|"Bm"f2df edB^c|"G"d2d2 "A"efge|[1"D"f2d2 d2fg:|[2"D"f2d2 d2|]


Tune 1285	Setting 1285

